packages/dnb-eufemia/assets/icons/animal_print_medium.svg

<svg width="24" height="24" viewBox="0 0 24 24" fill="none" xmlns="http://www.w3.org/2000/svg">
<path d="M15.75 14.8942C15.75 12.8095 14.1979 10.7564 12 10.7564C9.80212 10.7564 8.25 12.8095 8.25 14.8942C6.49169 14.8942 5.25 16.5367 5.25 18.2044C5.25 20.781 7.89583 22.3474 10.14 21.0143C11.2887 20.3553 12.7103 20.3553 13.859 21.0143C16.0351 22.3059 18.75 20.8705 18.75 18.2044C18.75 16.5367 17.5083 14.8942 15.75 14.8942Z" stroke="black" stroke-width="1.5" stroke-linecap="round" stroke-linejoin="round"/>
<path d="M3 14.0089C4.24264 14.0089 5.25 12.7767 5.25 11.2568C5.25 9.73681 4.24264 8.50464 3 8.50464C1.75736 8.50464 0.75 9.73681 0.75 11.2568C0.75 12.7767 1.75736 14.0089 3 14.0089Z" stroke="black" stroke-width="1.5" stroke-linecap="round" stroke-linejoin="round"/>
<path d="M8.25 8.00425C9.49264 8.00425 10.5 6.77208 10.5 5.25213C10.5 3.73217 9.49264 2.5 8.25 2.5C7.00736 2.5 6 3.73217 6 5.25213C6 6.77208 7.00736 8.00425 8.25 8.00425Z" stroke="black" stroke-width="1.5" stroke-linecap="round" stroke-linejoin="round"/>
<path d="M15.75 8.00425C16.9926 8.00425 18 6.77208 18 5.25213C18 3.73217 16.9926 2.5 15.75 2.5C14.5074 2.5 13.5 3.73217 13.5 5.25213C13.5 6.77208 14.5074 8.00425 15.75 8.00425Z" stroke="black" stroke-width="1.5" stroke-linecap="round" stroke-linejoin="round"/>
<path d="M21 14.0089C22.2426 14.0089 23.25 12.7767 23.25 11.2568C23.25 9.73681 22.2426 8.50464 21 8.50464C19.7574 8.50464 18.75 9.73681 18.75 11.2568C18.75 12.7767 19.7574 14.0089 21 14.0089Z" stroke="black" stroke-width="1.5" stroke-linecap="round" stroke-linejoin="round"/>
</svg>

<svg width="24" height="24" viewBox="0 0 24 24" fill="none" xmlns="http://www.w3.org/2000/svg"><path d="M15.75 14.894c0-2.085-1.552-4.138-3.75-4.138s-3.75 2.053-3.75 4.138c-1.758 0-3 1.643-3 3.31 0 2.577 2.646 4.143 4.89 2.81a3.745 3.745 0 0 1 3.719 0c2.176 1.292 4.891-.143 4.891-2.81 0-1.667-1.242-3.31-3-3.31ZM3 14.009c1.243 0 2.25-1.232 2.25-2.752 0-1.52-1.007-2.752-2.25-2.752S.75 9.737.75 11.257c0 1.52 1.007 2.752 2.25 2.752Zm5.25-6.005c1.243 0 2.25-1.232 2.25-2.752 0-1.52-1.007-2.752-2.25-2.752S6 3.732 6 5.252c0 1.52 1.007 2.752 2.25 2.752Zm7.5 0c1.243 0 2.25-1.232 2.25-2.752 0-1.52-1.007-2.752-2.25-2.752S13.5 3.732 13.5 5.252c0 1.52 1.007 2.752 2.25 2.752ZM21 14.009c1.243 0 2.25-1.232 2.25-2.752 0-1.52-1.007-2.752-2.25-2.752s-2.25 1.232-2.25 2.752c0 1.52 1.007 2.752 2.25 2.752Z" stroke="#000" stroke-width="1.5" stroke-linecap="round" stroke-linejoin="round"/></svg>
